X:0412
T:Corn Rigs
P:Corn Rigs
C:Ramsay's Tea Table Miscellany, 1725
R:Reel (8x32)
B:RSCDS 4-12
Z:Anselm Lingnau <anselm@strathspey.org>
M:2/4
L:1/16
K:C
G2 |
"C"c2cd e2dc | "G"BABc d2G2 | "C"c2cd efed | "C"c2g2 G2 |\
"C"c2cd fedc | "G"BABc d2"C"G2 | "F"ABcA "Dm"dcBA | "G"G2c2 "C"c2 :|
|: G2 |
"C"c2g2 e2g2| "G"BABc d2G2 | "C"c2g2 efd"G7"e | "C"c2g2g2 G2 |\
"C7"c2g2 "F"agfe | "Dm"fedc "G"B2G2 | "F"AB"Am/E"cA "Dm"dc"G7"BA | "G"G2c2 "C"c2 :|
